src/pos-icons/stairs-up.svg

<svg height="24" viewBox="0 0 24 24" width="24" xmlns="http://www.w3.org/2000/svg"><path d="m15 6h7v3h-4v4h-4v4h-4v4h-7v-3h4v-4h4v-4h4zm-4.83.66-5.51 5.51-1.83-1.83 5.51-5.51-1.84-1.83h5.5v5.5z"/></svg>

<?xml version="1.0" encoding="UTF-8"?><!DOCTYPE svg PUBLIC "-//W3C//DTD SVG 1.1//EN" "http://www.w3.org/Graphics/SVG/1.1/DTD/svg11.dtd"><svg xmlns="http://www.w3.org/2000/svg" xmlns:xlink="http://www.w3.org/1999/xlink" version="1.1" id="mdi-stairs-up" width="24" height="24" viewBox="0 0 24 24"><path d="M15 6H22V9H18V13H14V17H10V21H3V18H7V14H11V10H15V6M10.17 6.66L4.66 12.17L2.83 10.34L8.34 4.83L6.5 3H12V8.5L10.17 6.66Z" /></svg>
